svg/u1f490.svg

<svg viewBox="0 0 128 128" xmlns="http://www.w3.org/2000/svg">
  <path d="M71.74,3.32c-0.76-0.57-4.04,4.69-5.07,10.28c-0.82,4.45-1.05,16.35-0.56,22.24 c0.56,6.8,12.11,28.3,12.11,28.3l4.08,21.96l12.81,1.69c0,0,3.8-46.32,4.22-48.43c0.42-2.11,2.44-11.54,4.13-17.64 c1.4-5.04,4.32-13.61,3.61-14.03c-0.7-0.42-3.1,2.82-4.93,4.22s-7.29,5.68-9.76,8.87c-4.22,5.44-7.98,14.22-7.98,14.22 s-9.71-19.19-10.7-22.24C72.3,8.39,72.3,3.74,71.74,3.32z" fill="#94A61A"/>
  <path d="M98.39,21.24c-0.61,0.17-5.73,9.76-6.76,13.89s-3.38,10.32-3.75,20.55 c-0.32,8.85-0.56,13.61-0.56,13.61l3.28,3c0,0-0.19-15.86,0.66-21.96c0.84-6.1,3.12-15.32,4.13-18.68 C96.61,27.63,99.05,21.06,98.39,21.24z" fill="#B5D024"/>
  <path d="M52.59,35.98l-3.94,3.47c0,0,8.92,8.82,10.79,11.54c1.88,2.72,4.88,7.98,4.88,7.98 s-8.07-7.6-10.79-10.14c-2.72-2.53-6.66-5.07-6.66-5.07l-1.69,4.69l9.1,7.7L65.4,87.64c0,0-10.28-4.55-11.97-5.49 s-9.67-4.88-9.67-4.88l-0.56,4.22c0,0,4.22,3.57,7.13,4.88s18.44,9.43,18.44,9.43l14.59,0.05l15.2,14.92c0,0,3.1,4.22,4.32,5.91 c1.22,1.69,2.91,3.85,3.38,3.94c0.47,0.09,3.1-1.78,4.32-2.72s2.63-2.06,2.63-2.63s-3.57-4.04-3.57-4.04L93.6,88.82l-2.72-17.08 c0,0-2.16-7.6-3.38-14.45c-0.76-4.27-1.78-13.89-1.78-13.89l-4.22,0.56c0,0,1.06,8.05,1.97,13.61c1.22,7.41,2.91,14.27,2.91,14.27 s-5.54-10.32-7.7-13.8c-2.16-3.47-9.29-14.64-9.29-14.64l-3.75,1.97c0,0,6.29,9.76,7.88,12.39c1.6,2.63,7.51,12.95,7.51,12.95 l-7.98-7.04c0,0-7.04-11.07-9.1-14.17C61.88,46.4,52.59,35.98,52.59,35.98z" fill="#737F39"/>
  <path d="M12.89,92.38c-0.45,0.81,4.13,0.28,8.26,0.56c4.13,0.28,15.77,1.97,22.99,3.19s18.69,3.15,24.64,4.04 c5.68,0.84,9.1-1.51,11.05-1.97c2.98-0.7,3.73,0,3.73,0l6.29,6.95c0,0,2.02,5.42,3.38,9.01c1.6,4.22,3.57,11.92,4.5,12.11 s5.35-3.57,5.63-4.22c0.28-0.66-4.13-11.92-4.6-13.51s-1.97-5.82-1.97-5.82s5.15,5.35,7.13,7.41c2.35,2.44,4.5,4.32,5.44,4.5 s4.5-5.26,4.5-6.1s-4.5-4.5-6.01-6.01c-1.5-1.5-5.35-6.66-5.35-6.66s-2.16-6.66-2.35-8.17c-0.19-1.5,0.11-6.33,1.14-14.68 c0.5-4.04,5.62-24.45,8.52-32.62c2.91-8.17,5.82-16.89,5.16-17.27c-0.66-0.38-4.69,4.79-8.07,7.88s-6.38,5.91-7.6,8.35 c-1.22,2.44-5.9,9.24-7.23,19.71c-1.03,8.17-1.42,9.1-1.31,11.64c0.28,6.48,2.1,11.57,0.66,12.2c-1.5,0.66-5.44-5.73-7.13-8.45 c-1.69-2.72-9.1-12.48-16.14-16.71s-17.64-7.41-19.43-7.7c-1.78-0.28-11.73-6.38-11.73-6.38l-10.23,3.66c0,0-3.66-0.47-5.26-0.66 s-4.41-0.94-4.41-0.38s5.32,5.73,6.44,6.85c1.13,1.13,6.98,7.32,8.85,8.73S48.75,77.54,49.4,78.02c3.38,2.53,9.42,8.54,15.72,11.24 c5.26,2.25,10.7,2.98,10.7,4.01c0,1.03-2.53,0.28-5.63-0.35c-2.42-0.49-4.93-1.34-13.66-3.45c-7.57-1.83-12.11-2.16-13.05-2.16 c-0.94,0-15.37-0.16-17.91,0.03S15.29,88.08,12.89,92.38z" fill="#96A51D"/>
  <path d="M30.44,53.25c-0.06,0.5,4.04,2.72,7.98,4.97c3.94,2.25,14.17,7.41,19.15,11.26 c4.97,3.85,10.61,10.04,13.42,12.67c2.74,2.56,9.85,7.7,12.29,8.82c2.44,1.13,6.76,3.66,6.76,3.66l0.66-0.66 c0,0-7.13-5.54-8.92-6.95s-6.38-5.91-9.1-8.54c-2.72-2.63-8.67-8.12-13.23-11.54c-6.01-4.5-18.49-10.42-21.49-11.64 S30.53,52.5,30.44,53.25z" fill="#B5CF23"/>
  <path d="M100.36,87.32c-0.44-0.35-7.23,4.32-9.48,5.73c-2.25,1.41-7.98,4.5-7.98,5.07s5.82,7.7,6.29,7.7 s6.1-3.28,8.35-4.5s6.57-3.47,6.66-4.04C104.3,96.7,100.83,87.69,100.36,87.32z" fill="#E3DEA1"/>
  <path d="M36.59,3.32L24.88,13.57c0,0,0.7,3.91,1.55,6.29c1.6,4.5,5.23,8.89,5.23,8.89 s14.36,14.36,18.86,11.17s-1.1-26.49-1.1-26.49s-2.63-4.06-6.55-6.87C39.42,4.07,36.59,3.32,36.59,3.32z" fill="#A099F7"/>
  <path d="M27.6,3.25c-3.89,2.43-2.72,10.46-2.72,10.46s2.71-1.82,6.31-0.4c3.57,1.41,8.28,6.87,9.03,6.22 c0.75-0.66-3.97-6.36-4.04-11c-0.04-2.92,1.27-5,1.27-5S31.36,0.9,27.6,3.25z" fill="#7E43A4"/>
  <path d="M74.18,10.4c0,0-2.12,2.31-3.24,6.85c-1.6,6.48-0.8,15.35,0.89,20.41 c1.69,5.07,6.46,10.77,12.76,9.85c6.48-0.94,8.88-8.14,9.71-13.14c0.92-5.51,0.33-15.91-4.08-22.29c-3.07-4.44-3.21-3.71-3.21-3.71 L74.18,10.4z" fill="#FE6656"/>
  <path d="M80.51,5.62c-4.92,0.48-7.56,6.52-7.56,6.52s3.75-1.6,6.01,1.92c1.81,2.83,2.42,10.04,3.26,9.95 s1.15-7.79,1.81-9.9c1.38-4.43,5.26-3.24,5.26-3.24S86.24,5.05,80.51,5.62z" fill="#CD1734"/>
  <path d="M52.8,12.15l-5.8,3.81c0,0-2.86,7.4,1.74,17.2S60.48,50.33,69.3,45.6c7.48-4,4.2-17.35,0.95-24.22 c-2.25-4.76-5.93-9.01-9.95-11.22C56.31,7.97,52.8,12.15,52.8,12.15z" fill="#FEB804"/>
  <path d="M51.61,9.4c-3.75,1.81-4.6,6.56-4.6,6.56s2.53,0.57,5,1.92c3.88,2.13,6.41,8.42,7.14,8 c0.73-0.42-1.67-6.91-0.48-11.54c0.65-2.54,1.64-4.23,1.64-4.23S55.99,7.28,51.61,9.4z" fill="#FF7537"/>
  <path d="M20.77,28.56l-4.6,4.32c0,0,0.66,3.38,4.04,7.81c3.65,4.78,6.57,6.64,6.57,6.64s6.76,0.94,11.07,1.5 c4.32,0.56,10.89,1.22,10.89,1.22s2.35-3.19,2.16-7.04s-4.79-12.39-12.86-17.18c-6.85-4.06-10.04-4.5-14.08-4.41 S20.77,28.56,20.77,28.56z" fill="#FD8695"/>
  <path d="M16.93,24.11c-2.51,3.39-0.75,8.78-0.75,8.78s2.94-1.26,5.68-0.7c3,0.61,9.39,4.46,9.85,3.85 c0.57-0.74-4.36-5.26-5.77-9.53c-0.93-2.82-0.84-5.12-0.84-5.12S19.01,21.29,16.93,24.11z" fill="#E658A4"/>
  <path d="M16.39,65.24l-1.2,7.25c0,0,1.69,4.5,8.31,9.95c4.3,3.54,9.67,6.01,16.52,5.54s8.54-4.13,9.29-5.91 c0.75-1.78,2.95-7.97-6.76-15.86c-8.78-7.13-17.08-6.62-19.9-6.48C19.34,59.89,16.39,65.24,16.39,65.24z" fill="#E84B8B"/>
  <path d="M14.3,63.1c-1.68,3.84,1.08,9.85,1.08,9.85s2.07-2.18,6.01-2.44c3.61-0.23,9.76,3.28,10.27,2.12 c0.38-0.89-6.23-4.93-7.97-7.93c-1.62-2.81-1.03-4.97-1.03-4.97S15.8,59.68,14.3,63.1z" fill="#AF0C1B"/>
</svg>

<svg viewBox="0 0 128 128" xmlns="http://www.w3.org/2000/svg">
  <defs/>
  <path d="M71.74,3.32 C70.98,2.75 67.7,8.01 66.67,13.6 C65.85,18.05 65.62,29.95 66.11,35.84 C66.67,42.64 78.22,64.14 78.22,64.14 L82.3,86.1 L95.11,87.79 C95.11,87.79 98.91,41.47 99.33,39.36 C99.75,37.25 101.77,27.82 103.46,21.72 C104.86,16.68 107.78,8.11 107.07,7.69 C106.37,7.27 103.97,10.51 102.14,11.91 C100.31,13.31 94.85,17.59 92.38,20.78 C88.16,26.22 84.4,35 84.4,35 C84.4,35 74.69,15.81 73.7,12.76 C72.3,8.39 72.3,3.74 71.74,3.32 Z" fill="#94A61A"/>
  <path d="M98.39,21.24 C97.78,21.41 92.66,31 91.63,35.13 C90.6,39.26 88.25,45.45 87.88,55.68 C87.56,64.53 87.32,69.29 87.32,69.29 L90.6,72.29 C90.6,72.29 90.41,56.43 91.26,50.33 C92.1,44.23 94.38,35.01 95.39,31.65 C96.61,27.63 99.05,21.06 98.39,21.24 Z" fill="#B5D024"/>
  <path d="M52.59,35.98 L48.65,39.45 C48.65,39.45 57.57,48.27 59.44,50.99 C61.32,53.71 64.32,58.97 64.32,58.97 C64.32,58.97 56.25,51.37 53.53,48.83 C50.81,46.3 46.87,43.76 46.87,43.76 L45.18,48.45 L54.28,56.15 L65.4,87.64 C65.4,87.64 55.12,83.09 53.43,82.15 C51.74,81.21 43.76,77.27 43.76,77.27 L43.2,81.49 C43.2,81.49 47.42,85.06 50.33,86.37 C53.24,87.68 68.77,95.8 68.77,95.8 L83.36,95.85 L98.56,110.77 C98.56,110.77 101.66,114.99 102.88,116.68 C104.1,118.37 105.79,120.53 106.26,120.62 C106.73,120.71 109.36,118.84 110.58,117.9 C111.8,116.96 113.21,115.84 113.21,115.27 C113.21,114.7 109.64,111.23 109.64,111.23 L93.6,88.82 L90.88,71.74 C90.88,71.74 88.72,64.14 87.5,57.29 C86.74,53.02 85.72,43.4 85.72,43.4 L81.5,43.96 C81.5,43.96 82.56,52.01 83.47,57.57 C84.69,64.98 86.38,71.84 86.38,71.84 C86.38,71.84 80.84,61.52 78.68,58.04 C76.52,54.57 69.39,43.4 69.39,43.4 L65.64,45.37 C65.64,45.37 71.93,55.13 73.52,57.76 C75.12,60.39 81.03,70.71 81.03,70.71 L73.05,63.67 C73.05,63.67 66.01,52.6 63.95,49.5 C61.88,46.4 52.59,35.98 52.59,35.98 Z" fill="#737F39"/>
  <path d="M12.89,92.38 C12.44,93.19 17.02,92.66 21.15,92.94 C25.28,93.22 36.92,94.91 44.14,96.13 C51.36,97.35 62.83,99.28 68.78,100.17 C74.46,101.01 77.88,98.66 79.83,98.2 C82.81,97.5 83.56,98.2 83.56,98.2 L89.85,105.15 C89.85,105.15 91.87,110.57 93.23,114.16 C94.83,118.38 96.8,126.08 97.73,126.27 C98.66,126.46 103.08,122.7 103.36,122.05 C103.64,121.39 99.23,110.13 98.76,108.54 C98.29,106.95 96.79,102.72 96.79,102.72 C96.79,102.72 101.94,108.07 103.92,110.13 C106.27,112.57 108.42,114.45 109.36,114.63 C110.3,114.81 113.86,109.37 113.86,108.53 C113.86,107.69 109.36,104.03 107.85,102.52 C106.35,101.02 102.5,95.86 102.5,95.86 C102.5,95.86 100.34,89.2 100.15,87.69 C99.96,86.19 100.26,81.36 101.29,73.01 C101.79,68.97 106.91,48.56 109.81,40.39 C112.72,32.22 115.63,23.5 114.97,23.12 C114.31,22.74 110.28,27.91 106.9,31 C103.52,34.09 100.52,36.91 99.3,39.35 C98.08,41.79 93.4,48.59 92.07,59.06 C91.04,67.23 90.65,68.16 90.76,70.7 C91.04,77.18 92.86,82.27 91.42,82.9 C89.92,83.56 85.98,77.17 84.29,74.45 C82.6,71.73 75.19,61.97 68.15,57.74 C61.11,53.51 50.51,50.33 48.72,50.04 C46.94,49.76 36.99,43.66 36.99,43.66 L26.76,47.32 C26.76,47.32 23.1,46.85 21.5,46.66 C19.9,46.47 17.09,45.72 17.09,46.28 C17.09,46.84 22.41,52.01 23.53,53.13 C24.66,54.26 30.51,60.45 32.38,61.86 C34.25,63.27 48.75,77.54 49.4,78.02 C52.78,80.55 58.82,86.56 65.12,89.26 C70.38,91.51 75.82,92.24 75.82,93.27 C75.82,94.3 73.29,93.55 70.19,92.92 C67.77,92.43 65.26,91.58 56.53,89.47 C48.96,87.64 44.42,87.31 43.48,87.31 C42.54,87.31 28.11,87.15 25.57,87.34 C23.03,87.53 15.29,88.08 12.89,92.38 Z" fill="#96A51D"/>
  <path d="M30.44,53.25 C30.38,53.75 34.48,55.97 38.42,58.22 C42.36,60.47 52.59,65.63 57.57,69.48 C62.54,73.33 68.18,79.52 70.99,82.15 C73.73,84.71 80.84,89.85 83.28,90.97 C85.72,92.1 90.04,94.63 90.04,94.63 L90.7,93.97 C90.7,93.97 83.57,88.43 81.78,87.02 C79.99,85.61 75.4,81.11 72.68,78.48 C69.96,75.85 64.01,70.36 59.45,66.94 C53.44,62.44 40.96,56.52 37.96,55.3 C34.96,54.08 30.53,52.5 30.44,53.25 Z" fill="#B5CF23"/>
  <path d="M100.36,87.32 C99.92,86.97 93.13,91.64 90.88,93.05 C88.63,94.46 82.9,97.55 82.9,98.12 C82.9,98.69 88.72,105.82 89.19,105.82 C89.66,105.82 95.29,102.54 97.54,101.32 C99.79,100.1 104.11,97.85 104.2,97.28 C104.3,96.7 100.83,87.69 100.36,87.32 Z" fill="#E3DEA1"/>
  <path d="M36.59,3.32 L24.88,13.57 C24.88,13.57 25.58,17.48 26.43,19.86 C28.03,24.36 31.66,28.75 31.66,28.75 C31.66,28.75 46.02,43.11 50.52,39.92 C55.02,36.73 49.42,13.43 49.42,13.43 C49.42,13.43 46.79,9.37 42.87,6.56 C39.42,4.07 36.59,3.32 36.59,3.32 Z" fill="#A099F7"/>
  <path d="M27.6,3.25 C23.71,5.68 24.88,13.71 24.88,13.71 C24.88,13.71 27.59,11.89 31.19,13.31 C34.76,14.72 39.47,20.18 40.22,19.53 C40.97,18.87 36.25,13.17 36.18,8.53 C36.14,5.61 37.45,3.53 37.45,3.53 C37.45,3.53 31.36,0.9 27.6,3.25 Z" fill="#7E43A4"/>
  <path d="M74.18,10.4 C74.18,10.4 72.06,12.71 70.94,17.25 C69.34,23.73 70.14,32.6 71.83,37.66 C73.52,42.73 78.29,48.43 84.59,47.51 C91.07,46.57 93.47,39.37 94.3,34.37 C95.22,28.86 94.63,18.46 90.22,12.08 C87.15,7.64 87.01,8.37 87.01,8.37 L74.18,10.4 Z" fill="#FE6656"/>
  <path d="M80.51,5.62 C75.59,6.1 72.95,12.14 72.95,12.14 C72.95,12.14 76.7,10.54 78.96,14.06 C80.77,16.89 81.38,24.1 82.22,24.01 C83.06,23.92 83.37,16.22 84.03,14.11 C85.41,9.68 89.29,10.87 89.29,10.87 C89.29,10.87 86.24,5.05 80.51,5.62 Z" fill="#CD1734"/>
  <path d="M52.8,12.15 L47,15.96 C47,15.96 44.14,23.36 48.74,33.16 C53.34,42.96 60.48,50.33 69.3,45.6 C76.78,41.6 73.5,28.25 70.25,21.38 C68,16.62 64.32,12.37 60.3,10.16 C56.31,7.97 52.8,12.15 52.8,12.15 Z" fill="#FEB804"/>
  <path d="M51.61,9.4 C47.86,11.21 47.01,15.96 47.01,15.96 C47.01,15.96 49.54,16.53 52.01,17.88 C55.89,20.01 58.42,26.3 59.15,25.88 C59.88,25.46 57.48,18.97 58.67,14.34 C59.32,11.8 60.31,10.11 60.31,10.11 C60.31,10.11 55.99,7.28 51.61,9.4 Z" fill="#FF7537"/>
  <path d="M20.77,28.56 L16.17,32.88 C16.17,32.88 16.83,36.26 20.21,40.69 C23.86,45.47 26.78,47.33 26.78,47.33 C26.78,47.33 33.54,48.27 37.85,48.83 C42.17,49.39 48.74,50.05 48.74,50.05 C48.74,50.05 51.09,46.86 50.9,43.01 C50.71,39.16 46.11,30.62 38.04,25.83 C31.19,21.77 28,21.33 23.96,21.42 C19.92,21.51 20.77,28.56 20.77,28.56 Z" fill="#FD8695"/>
  <path d="M16.93,24.11 C14.42,27.5 16.18,32.89 16.18,32.89 C16.18,32.89 19.12,31.63 21.86,32.19 C24.86,32.8 31.25,36.65 31.71,36.04 C32.28,35.3 27.35,30.78 25.94,26.51 C25.01,23.69 25.1,21.39 25.1,21.39 C25.1,21.39 19.01,21.29 16.93,24.11 Z" fill="#E658A4"/>
  <path d="M16.39,65.24 L15.19,72.49 C15.19,72.49 16.88,76.99 23.5,82.44 C27.8,85.98 33.17,88.45 40.02,87.98 C46.87,87.51 48.56,83.85 49.31,82.07 C50.06,80.29 52.26,74.1 42.55,66.21 C33.77,59.08 25.47,59.59 22.65,59.73 C19.34,59.89 16.39,65.24 16.39,65.24 Z" fill="#E84B8B"/>
  <path d="M14.3,63.1 C12.62,66.94 15.38,72.95 15.38,72.95 C15.38,72.95 17.45,70.77 21.39,70.51 C25,70.28 31.15,73.79 31.66,72.63 C32.04,71.74 25.43,67.7 23.69,64.7 C22.07,61.89 22.66,59.73 22.66,59.73 C22.66,59.73 15.8,59.68 14.3,63.1 Z" fill="#AF0C1B"/>
</svg>
